images/icons/more.svg

<svg height="20pt" viewBox="0 0 20 20" width="20pt" xmlns="http://www.w3.org/2000/svg"><path d="m19.21875 8.113281-5.332031-5.332031c-1.039063-1.039062-2.734375-1.039062-3.773438 0-.503906.503906-.78125 1.171875-.78125 1.882812 0 .714844.277344 1.382813.78125 1.886719l3.449219 3.449219-3.449219 3.449219c-.503906.503906-.78125 1.171875-.78125 1.882812 0 .710938.277344 1.382813.78125 1.886719.503907.503906 1.175781.78125 1.886719.78125s1.382812-.277344 1.886719-.78125l5.332031-5.335938c.503906-.5.78125-1.171874.78125-1.882812s-.277344-1.382812-.78125-1.886719zm-.941406 2.828125-5.335938 5.332032c-.503906.507812-1.378906.507812-1.882812 0-.519532-.519532-.519532-1.363282 0-1.882813l4.390625-4.390625-4.390625-4.390625c-.253906-.253906-.390625-.585937-.390625-.945313 0-.355468.136719-.6875.390625-.941406.257812-.257812.601562-.390625.941406-.390625s.683594.132813.941406.390625l5.335938 5.332032c.25.253906.390625.589843.390625.945312s-.140625.691406-.390625.941406zm0 0" fill="#d6d6d6"/><path d="m9.886719 8.113281-5.335938-5.332031c-1.039062-1.039062-2.730469-1.039062-3.769531 0-.503906.503906-.78125 1.171875-.78125 1.882812 0 .714844.277344 1.382813.78125 1.886719l3.449219 3.449219-3.449219 3.449219c-.503906.503906-.78125 1.171875-.78125 1.882812 0 .710938.277344 1.382813.78125 1.886719s1.171875.78125 1.886719.78125c.710937 0 1.378906-.277344 1.882812-.78125l5.335938-5.335938c.503906-.5.78125-1.171874.78125-1.882812s-.277344-1.382812-.78125-1.886719zm-.945313 2.828125-5.332031 5.332032c-.503906.507812-1.378906.507812-1.886719 0-.519531-.519532-.519531-1.363282 0-1.882813l4.390625-4.390625-4.390625-4.390625c-.25-.253906-.390625-.585937-.390625-.945313 0-.355468.140625-.6875.390625-.941406.261719-.257812.601563-.390625.945313-.390625.339843 0 .679687.132813.941406.390625l5.332031 5.332032c.253906.253906.390625.589843.390625.945312s-.136719.691406-.390625.941406zm0 0" fill="#fff"/></svg>

<?xml version="1.0" encoding="UTF-8"?>
<svg xmlns="http://www.w3.org/2000/svg" xmlns:xlink="http://www.w3.org/1999/xlink" width="20pt" height="20pt" viewBox="0 0 20 20" version="1.1">
<g id="surface1">
<path style=" stroke:none;fill-rule:nonzero;fill:rgb(214,214,214);fill-opacity:1;" d="M 19.21875 8.113281 L 13.886719 2.78125 C 12.847656 1.742188 11.152344 1.742188 10.113281 2.78125 C 9.609375 3.285156 9.332031 3.953125 9.332031 4.664062 C 9.332031 5.378906 9.609375 6.046875 10.113281 6.550781 L 13.5625 10 L 10.113281 13.449219 C 9.609375 13.953125 9.332031 14.621094 9.332031 15.332031 C 9.332031 16.042969 9.609375 16.714844 10.113281 17.21875 C 10.617188 17.722656 11.289062 18 12 18 C 12.710938 18 13.382812 17.722656 13.886719 17.21875 L 19.21875 11.882812 C 19.722656 11.382812 20 10.710938 20 10 C 20 9.289062 19.722656 8.617188 19.21875 8.113281 Z M 18.277344 10.941406 L 12.941406 16.273438 C 12.4375 16.78125 11.5625 16.78125 11.058594 16.273438 C 10.539062 15.753906 10.539062 14.910156 11.058594 14.390625 L 15.449219 10 L 11.058594 5.609375 C 10.804688 5.355469 10.667969 5.023438 10.667969 4.664062 C 10.667969 4.308594 10.804688 3.976562 11.058594 3.722656 C 11.316406 3.464844 11.660156 3.332031 12 3.332031 C 12.339844 3.332031 12.683594 3.464844 12.941406 3.722656 L 18.277344 9.054688 C 18.527344 9.308594 18.667969 9.644531 18.667969 10 C 18.667969 10.355469 18.527344 10.691406 18.277344 10.941406 Z M 18.277344 10.941406 "/>
<path style=" stroke:none;fill-rule:nonzero;fill:rgb(255,255,255);fill-opacity:1;" d="M 9.886719 8.113281 L 4.550781 2.78125 C 3.511719 1.742188 1.820312 1.742188 0.78125 2.78125 C 0.277344 3.285156 0 3.953125 0 4.664062 C 0 5.378906 0.277344 6.046875 0.78125 6.550781 L 4.230469 10 L 0.78125 13.449219 C 0.277344 13.953125 0 14.621094 0 15.332031 C 0 16.042969 0.277344 16.714844 0.78125 17.21875 C 1.285156 17.722656 1.953125 18 2.667969 18 C 3.378906 18 4.046875 17.722656 4.550781 17.21875 L 9.886719 11.882812 C 10.390625 11.382812 10.667969 10.710938 10.667969 10 C 10.667969 9.289062 10.390625 8.617188 9.886719 8.113281 Z M 8.941406 10.941406 L 3.609375 16.273438 C 3.105469 16.78125 2.230469 16.78125 1.722656 16.273438 C 1.203125 15.753906 1.203125 14.910156 1.722656 14.390625 L 6.113281 10 L 1.722656 5.609375 C 1.472656 5.355469 1.332031 5.023438 1.332031 4.664062 C 1.332031 4.308594 1.472656 3.976562 1.722656 3.722656 C 1.984375 3.464844 2.324219 3.332031 2.667969 3.332031 C 3.007812 3.332031 3.347656 3.464844 3.609375 3.722656 L 8.941406 9.054688 C 9.195312 9.308594 9.332031 9.644531 9.332031 10 C 9.332031 10.355469 9.195312 10.691406 8.941406 10.941406 Z M 8.941406 10.941406 "/>
</g>
</svg>
